images/product-resize-icon.svg

<svg width="24" height="24" fill="none" xmlns="http://www.w3.org/2000/svg"><path d="M21 21l-6-6m6 6v-4.8m0 4.8h-4.8M3 16.2V21m0 0h4.8M3 21l6-6m12-7.2V3m0 0h-4.8M21 3l-6 6M3 7.8V3m0 0h4.8M3 3l6 6" stroke="#0E1218" stroke-width="1.5" stroke-linecap="round" stroke-linejoin="round"/></svg>

<svg width="24" height="24" viewBox="0 0 24 24" fill="none" xmlns="http://www.w3.org/2000/svg">
<path d="M21 21L15 15M21 21V16.2M21 21H16.2" stroke="#0E1218" stroke-width="1.5" stroke-linecap="round" stroke-linejoin="round"/>
<path d="M3 16.2V21M3 21H7.8M3 21L9 15" stroke="#0E1218" stroke-width="1.5" stroke-linecap="round" stroke-linejoin="round"/>
<path d="M21 7.8V3M21 3H16.2M21 3L15 9" stroke="#0E1218" stroke-width="1.5" stroke-linecap="round" stroke-linejoin="round"/>
<path d="M3 7.8V3M3 3H7.8M3 3L9 9" stroke="#0E1218" stroke-width="1.5" stroke-linecap="round" stroke-linejoin="round"/>
</svg>
